Papirus-Adapta/16x16/actions/color-fill.svg

<svg xmlns="http://www.w3.org/2000/svg" width="16" height="16" version="1.1" viewBox="0 0 16 16">
 <defs>
  <style id="current-color-scheme" type="text/css">
   .ColorScheme-Text { color:#414c52; } .ColorScheme-Highlight { color:#00bcd4; }
  </style>
 </defs>
 <path style="fill:currentColor" class="ColorScheme-Text" d="m 1,2 2,4 v 8 c 5e-5,0.52358 0.47642,0.99995 1,1 h 8 c 0.52358,-5e-5 0.99995,-0.47642 1,-1 V 11 A 3,3 0 0 0 16,8 3,3 0 0 0 13,5 V 2 Z m 12,5 a 1,1 0 0 1 1,1 1,1 0 0 1 -1,1 z"/>
</svg>

<svg xmlns="http://www.w3.org/2000/svg" width="16" height="16" version="1.1">
 <defs>
  <style id="current-color-scheme" type="text/css">
   .ColorScheme-Text { color:#444444; } .ColorScheme-Highlight { color:#4285f4; } .ColorScheme-NeutralText { color:#ff9800; } .ColorScheme-PositiveText { color:#4caf50; } .ColorScheme-NegativeText { color:#f44336; }
  </style>
 </defs>
 <path style="fill:currentColor" class="ColorScheme-Text" d="M 1,2 3,6 V 14 C 3,15 4,15 4,15 H 12 C 12,15 13,15 13,14 V 11 C 14.657,11 16,9.6569 16,8 16,6.3431 14.657,5 13,5 V 2 Z M 13,7 C 13.552,7 14,7.4477 14,8 14,8.5523 13.552,9 13,9 Z"/>
</svg>
